X:1
T:James Gibb editions
T:Salutis humanae Sator - Vecchi
%%score [ 1 2 3 4 ]
L:1/8
Q:1/4=80
M:3/4
K:C
V:1 treble-8 nm="Tenor I" snm="T I"
V:2 treble-8 nm="Tenor II" snm="T II"
V:3 bass nm="Bass I" snm="B I"
V:4 bass nm="Bass II" snm="B II"
V:1
"^Salutis humanae Sator""^Orazio Vecchi\n(1550-1605)" e2 e2 e2 | e4 e2 | f4 d2 | e4 z2 | e2 e2 e2 | %5
w: ~Sa- lu- tis|hu- ma-|nae Sa-|tor,|Je- su vo-|
w: ~Que vic- tus~|es cle-|men- ti-|a,|Ut no- stra|
w: ~Per- rum- pis|in- fer-|num cha-|os,|Vin- ctis ca-|
w: ~Te co- gat|in- dul-|gen- ti-|a,|Ut dam- na|
w: ~Tu dux ad|a- stra~~et|se- mi-|ta,|Sis me- ta|
 e4 d2 | d4 d2 | d4 z2 | e2 ^f2 g2 | e4 e2 | =f4 g2 | g4 z2 | d2 e2 e2 | e4 e2 | e4 e2 | e6 || f6 | %17
w: lu- ptas|cor- di-|um,|Or- bis re-|dem- pti|Con- di-|tor,|et ca- sta|lux a-|man- ti-|um.||
w: fer- res|cri- mi-|na?|Mor- tem su-|bi- res|in- no-|cens,|A mor- te|nos ut|tol- le-|res.||
w: te- nas|de- tra-|his:|Vic- tor tri-|um- pho|no- bi-|li|Ad dex- te-|ram Pa-|tris se-|des.||
w: no- stra|sar- ci-|as|Tu- i- que|vul- tus|com- po-|tes|Di- tes be-|a- to|lu- mi-|ne.||
w: no- stris|cor- di-|bus,|Sis la- cry-|ma- rum|gau- di-|um,|Sis dul- ce|vi- tae|prae- mi-|um.|A-|
 !fermata!e6 |] %18
w: |
w: |
w: |
w: |
w: men.|
V:2
 B2 B2 c2 | B4 ^c2 | d4 A2 | B4 z2 | c2 c2 c2 | c4 B2 | A4 A2 | B4 z2 | c2 c2 B2 | c4 c2 | c4 e2 | %11
w: ~Sa- lu- tis|hu- ma-|nae Sa-|tor,|Je- su vo-|lu- ptas|cor- di-|um,|Or- bis re-|dem- pti|Con- di-|
w: ~Que vic- tus~|es cle-|men- ti-|a,|Ut no- stra|fer- res|cri- mi-|na?|Mor- tem su-|bi- res|in- no-|
w: ~Per- rum- pis|in- fer-|num cha-|os,|Vin- ctis ca-|te- nas|de- tra-|his:|Vic- tor tri-|um- pho|no- bi-|
w: ~Te co- gat|in- dul-|gen- ti-|a,|Ut dam- na|no- stra|sar- ci-|as|Tu- i- que|vul- tus|com- po-|
w: ~Tu dux ad|a- stra~~et|se- mi-|ta,|Sis me- ta|no- stris|cor- di-|bus,|Sis la- cry-|ma- rum|gau- di-|
 d4 z2 | G2 G2 G2 | A4 B2 | c4 c2 | B6 || d6 | !fermata!B6 |] %18
w: tor,|et ca- sta|lux a-|man- ti-|um.|||
w: cens,|A mor- te|nos ut|tol- le-|res.|||
w: li|Ad dex- te-|ram Pa-|tris se-|des.|||
w: tes|Di- tes be-|a- to|lu- mi-|ne.|||
w: um,|Sis dul- ce|vi- tae|prae- mi-|um.|A-|men.|
V:3
 ^G,2 G,2 A,2 | ^G,4 A,2 | A,4 A,2 | ^G,4 z2 | A,2 G,2 G,2 | G,4 G,2 | ^F,4 F,2 | G,4 z2 | %8
w: ~Sa- lu- tis|hu- ma-|nae Sa-|tor,|Je- su vo-|lu- ptas|cor- di-|um,|
w: ~Que vic- tus~|es cle-|men- ti-|a,|Ut no- stra|fer- res|cri- mi-|na?|
w: ~Per- rum- pis|in- fer-|num cha-|os,|Vin- ctis ca-|te- nas|de- tra-|his:|
w: ~Te co- gat|in- dul-|gen- ti-|a,|Ut dam- na|no- stra|sar- ci-|as|
w: ~Tu dux ad|a- stra~~et|se- mi-|ta,|Sis me- ta|no- stris|cor- di-|bus,|
 G,2 C,2 G,2 | G,4 G,2 | A,4 C2 | B,4 z2 | B,2 C2 C2 | C4 B,2 | A,4 A,2 | ^G,6 || A,6 | ^G,6 |] %18
w: Or- bis re-|dem- pti|Con- di-|tor,|et ca- sta|lux a-|man- ti-|um.|||
w: Mor- tem su-|bi- res|in- no-|cens,|A mor- te|nos ut|tol- le-|res.|||
w: Vic- tor tri-|um- pho|no- bi-|li|Ad dex- te-|ram Pa-|tris se-|des.|||
w: Tu- i- que|vul- tus|com- po-|tes|Di- tes be-|a- to|lu- mi-|ne.|||
w: Sis la- cry-|ma- rum|gau- di-|um,|Sis dul- ce|vi- tae|prae- mi-|um.|A-|men.|
V:4
 E,2 E,2 A,,2 | E,4 A,,2 | D,4 F,2 | E,4 z2 | A,,2 C,2 C,2 | C,4 G,,2 | D,4 D,2 | G,,4 z2 | %8
w: ~Sa- lu- tis|hu- ma-|nae Sa-|tor,|Je- su vo-|lu- ptas|cor- di-|um,|
w: ~Que vic- tus~|es cle-|men- ti-|a,|Ut no- stra|fer- res|cri- mi-|na?|
w: ~Per- rum- pis|in- fer-|num cha-|os,|Vin- ctis ca-|te- nas|de- tra-|his:|
w: ~Te co- gat|in- dul-|gen- ti-|a,|Ut dam- na|no- stra|sar- ci-|as|
w: ~Tu dux ad|a- stra~~et|se- mi-|ta,|Sis me- ta|no- stris|cor- di-|bus,|
 C,2 A,,2 G,,2 | C,4 C,2 | F,4 C,2 | G,4 z2 | G,,2 C,2 C,2 | A,,4 ^G,,2 | A,,4 A,,2 | E,6 || D,6 | %17
w: Or- bis re-|dem- pti|Con- di-|tor,|et ca- sta|lux a-|man- ti-|um.||
w: Mor- tem su-|bi- res|in- no-|cens,|A mor- te|nos ut|tol- le-|res.||
w: Vic- tor tri-|um- pho|no- bi-|li|Ad dex- te-|ram Pa-|tris se-|des.||
w: Tu- i- que|vul- tus|com- po-|tes|Di- tes be-|a- to|lu- mi-|ne.||
w: Sis la- cry-|ma- rum|gau- di-|um,|Sis dul- ce|vi- tae|prae- mi-|um.|A-|
 !fermata!E,6 |] %18
w: |
w: |
w: |
w: |
w: men.|

